packages/core/src/svgs/tokens/branded/PERI.svg

<svg width="24" height="24" viewBox="0 0 24 24" fill="none" xmlns="http://www.w3.org/2000/svg">
<path d="M11.9971 22C14.2763 22.0006 16.4874 21.2226 18.2641 19.7949C20.0406 18.3672 21.2763 16.3754 21.7661 14.1494C22.2561 11.9234 21.9709 9.59692 20.9578 7.5552C19.9448 5.5135 18.2647 3.87912 16.1958 2.92281C14.1268 1.9665 11.7934 1.74563 9.5818 2.29681C7.37017 2.84797 5.41323 4.13811 4.03509 5.95348C2.65696 7.76886 1.94032 10.0006 2.00389 12.2789C2.06746 14.5573 2.90743 16.7455 4.38466 18.4812L7.32214 10.1062C7.44714 9.79992 7.90338 9.18742 8.69714 9.18742C8.90339 9.19369 9.39091 9.35002 9.72836 9.84367C10.1969 9.63309 10.7024 9.51627 11.2159 9.49994C12.0222 9.49994 13.7784 10.3249 13.2784 12.2813C12.8689 13.7562 12.3806 15.2084 11.8158 16.6312C12.1283 16.5874 12.9158 16.2937 13.5034 15.475C13.8861 14.9666 14.1954 14.4069 14.4221 13.8125C14.5096 13.6499 14.7971 13.3313 15.3221 13.3313C15.9659 13.3313 16.2345 13.9249 16.2345 14.4374C16.2345 14.95 14.7908 18.8749 10.1284 18.8749L9.96592 18.8624C9.20336 18.8 7.80338 18.6874 7.2909 18.4249H7.20964L6.33464 20.2437C7.94715 21.3499 9.89709 22 11.9971 22ZM7.84713 16.1625C7.69715 16.7875 8.10339 16.9125 8.27839 16.9749C8.31588 16.9812 8.3409 16.9937 8.34714 17C9.21591 17 9.49707 16.3624 9.52843 16.0437C9.87842 15.0124 10.6096 12.85 10.6971 12.4312C10.8034 11.9125 10.7597 11.3749 10.0721 11.3749C9.52843 11.3749 9.25966 11.825 9.1847 12.05C8.80339 13.1749 7.99714 15.5625 7.84713 16.1625Z" fill="#14085A"/>
</svg>

<svg xmlns="http://www.w3.org/2000/svg" width="24" height="24" fill="none" viewBox="0 0 24 24">
    <path fill="#14085A" d="M11.997 22a10 10 0 1 0-7.612-3.519l2.937-8.375c.125-.306.581-.919 1.375-.919.206.007.694.163 1.031.657.469-.21.974-.328 1.488-.344.806 0 2.562.825 2.062 2.781a43 43 0 0 1-1.462 4.35c.312-.044 1.1-.337 1.687-1.156a6.8 6.8 0 0 0 .92-1.662c.087-.163.374-.482.9-.482.643 0 .912.594.912 1.106s-1.444 4.438-6.107 4.438l-.162-.013c-.763-.062-2.163-.175-2.675-.437H7.21l-.875 1.819A10 10 0 0 0 11.997 22m-4.15-5.837c-.15.625.256.75.431.812a.15.15 0 0 1 .07.025c.868 0 1.15-.638 1.18-.956.35-1.032 1.082-3.194 1.17-3.613.105-.518.062-1.056-.626-1.056-.544 0-.812.45-.887.675-.382 1.125-1.188 3.512-1.338 4.113"/>
</svg>
